src/dsmComponents/Icons/email-24px.svg

<?xml version="1.0" encoding="UTF-8"?>
<svg width="24px" height="20px" viewBox="0 0 24 20" version="1.1" xmlns="http://www.w3.org/2000/svg" xmlns:xlink="http://www.w3.org/1999/xlink">
    <!-- Generator: Sketch 59.1 (86144) - https://sketch.com -->
    <title>email-24px</title>
    <desc>Created with Sketch.</desc>
    <defs>
        <path d="M24,6.9 L24,17 C24,18.6568542 22.6568542,20 21,20 L21,20 L3,20 C1.34314575,20 3.38813179e-21,18.6568542 3.38813179e-21,17 L3.38813179e-21,17 L3.38813179e-21,6.9 L10.6,12.6 C11.0110358,12.8814251 11.5023299,13.0217949 12,13 C12.4976701,13.0217949 12.9889642,12.8814251 13.4,12.6 L13.4,12.6 L24,6.9 Z M21,0 C22.6568542,0 24.0000148,1.34314575 24.0000148,3 L24.0000148,3 L24.0000148,4 C24.0019433,4.36673226 23.8124031,4.7079046 23.5,4.9 L23.5,4.9 L12.5,10.9 C12.3464583,10.9808367 12.1728218,11.015564 12,11 C11.8271782,11.015564 11.6535417,10.9808367 11.5,10.9 L11.5,10.9 L0.5,4.9 C0.187596922,4.7079046 -0.00194326986,4.36673226 -1.47999329e-05,4 L-1.47999329e-05,4 L-1.47999329e-05,3 C-1.47999329e-05,1.34314575 1.34314575,0 3,0 L3,0 Z" id="path-1"></path>
    </defs>
    <g id="Final" stroke="none" stroke-width="1" fill="none" fill-rule="evenodd">
        <g id="All-Nucleo-Icons" transform="translate(-608.000000, -3105.000000)">
            <g id="Solo/Nucleo/24px/email" transform="translate(608.000000, 3103.000000)">
                <g id="letter" transform="translate(0.000000, 2.000000)">
                    <g id="Colour/Default-Colour">
                        <mask id="mask-2" fill="white">
                            <use xlink:href="#path-1"></use>
                        </mask>
                        <g id="Mask" fill-rule="nonzero"></g>
                        <g id="colour/neutral/chia" mask="url(#mask-2)" fill="#737373">
                            <g transform="translate(-20.000000, -22.000000)" id="Colour">
                                <rect x="0" y="0" width="64" height="64"></rect>
                            </g>
                        </g>
                    </g>
                </g>
            </g>
        </g>
    </g>
</svg>

<svg width="24" height="20" xmlns="http://www.w3.org/2000/svg" xmlns:xlink="http://www.w3.org/1999/xlink"><defs><path d="M24 6.9V17a3 3 0 01-3 3H3a3 3 0 01-3-3V6.9l10.6 5.7a2.3 2.3 0 001.4.4 2.3 2.3 0 001.4-.4L24 6.9zM21 0a3 3 0 013 3v1a1.05 1.05 0 01-.5.9l-11 6a.9.9 0 01-.5.1.9.9 0 01-.5-.1l-11-6A1.05 1.05 0 010 4V3a3 3 0 013-3z" id="email-24px_svg__a"/></defs><use fill="#737373" xlink:href="#email-24px_svg__a" fill-rule="evenodd"/></svg>
